src/assets/img/music.svg

<svg
  width="18"
  height="20"
  viewBox="0 0 18 20"
  fill="none"
  xmlns="http://www.w3.org/2000/svg">
  <path
  opacity="0.4"
  fill-rule="evenodd"
  clip-rule="evenodd"
  d="M14.85 17.2729C16.5897 17.2729 18 15.8484 18 14.0911V0.92929C18.0016 0.854306 17.9939 0.777902 17.9762 0.701509C17.8626 0.212723 17.3782 -0.0904878 16.8943 0.0242693L5.22802 2.79094C4.82628 2.88621 4.55117 3.23961 4.5 3.63657V13.9428C4.09084 13.7464 3.63312 13.6366 3.15 13.6366C1.4103 13.6366 0 15.0611 0 16.8184C0 18.5757 1.4103 20.0002 3.15 20.0002C4.8897 20.0002 6.3 18.5757 6.3 16.8184V8.0407L16.2 5.6929V11.2155C15.7908 11.0192 15.3331 10.9093 14.85 10.9093C13.1103 10.9093 11.7 12.3338 11.7 14.0911C11.7 15.8484 13.1103 17.2729 14.85 17.2729ZM6.3 6.17308V4.40434L16.2 2.05654V3.82528L6.3 6.17308ZM16.2 14.0911C16.2 13.338 15.5956 12.7275 14.85 12.7275C14.1044 12.7275 13.5 13.338 13.5 14.0911C13.5 14.8442 14.1044 15.4548 14.85 15.4548C15.5956 15.4548 16.2 14.8442 16.2 14.0911ZM3.15 15.4548C3.89558 15.4548 4.5 16.0653 4.5 16.8184C4.5 17.5715 3.89558 18.182 3.15 18.182C2.40442 18.182 1.8 17.5715 1.8 16.8184C1.8 16.0653 2.40442 15.4548 3.15 15.4548Z"
  fill="white"/>
</svg>

<svg
  width="18"
  height="20"
  fill="none"
  xmlns="http://www.w3.org/2000/svg">
  <path
  opacity=".4"
  fill-rule="evenodd"
  clip-rule="evenodd"
  d="M14.85 17.273c1.74 0 3.15-1.425 3.15-3.182V.93a.9.9 0 0 0-1.106-.905L5.228 2.791c-.402.095-.677.449-.728.846v10.306a3.11 3.11 0 0 0-1.35-.306C1.41 13.637 0 15.06 0 16.818 0 18.576 1.41 20 3.15 20s3.15-1.424 3.15-3.182V8.041l9.9-2.348v5.523a3.112 3.112 0 0 0-1.35-.307c-1.74 0-3.15 1.425-3.15 3.182s1.41 3.182 3.15 3.182ZM6.3 6.173V4.404l9.9-2.347v1.768L6.3 6.173Zm9.9 7.918c0-.753-.604-1.364-1.35-1.364-.746 0-1.35.611-1.35 1.364 0 .753.604 1.364 1.35 1.364.746 0 1.35-.61 1.35-1.364ZM3.15 15.455c.746 0 1.35.61 1.35 1.363s-.604 1.364-1.35 1.364c-.746 0-1.35-.61-1.35-1.364 0-.753.604-1.363 1.35-1.363Z"
  fill="#fff"/>
</svg>
